!!!COM: Music21
!!!OTL: Arriba o queixo
!!!OMV: pezas_pasodobles_arriba-o-queixo_arriba-o-queixo-partitura.musicxml
**kern
*part1
*staff1
*I"Gaita
*I'Bag
*clefG^2
*k[]
*M2/4
*MM150
=1
!LO:TX:a:t=[quarter]=150
8.eeL
16eeJk
12ffL
12ee
12ffJ
=
8ggL
[8eeJ
4ee]
=
8.eeL
16eeJk
12ffL
12ee
12ffJ
=
2ee
=
8.eeL
16eeJk
12ffL
12ee
12ffJ
=
8.ggL
[16eeJk
4ee]
=
12ggL
12aa
12ggJ
12ffL
12gg
12ffJ
=
2ee
!!linebreak:original
=||
*M2/4
*MM150
!LO:TX:a:t=[quarter]=150
8.eeL
16eeJk
12ffL
12ee
12ffJ
=
8ggL
[8eeJ
4ee]
=
8.eeL
16eeJk
12ffL
12ee
12ffJ
=
2ee
=
8.eeL
16eeJk
12ffL
12ee
12ffJ
=
8.ggL
[16eeJk
4ee]
=
12ggL
12aa
12ggJ
12ffL
12gg
12ffJ
=
2ee
=||
4gg
8eeL
8ffJ
!!linebreak:original
=
4gg
8aaL
8ggJ
=
4ff
4ee
=
4gg
8eeL
8ffJ
=
4gg
8aaL
8cccJ
=
16bbLL
16ccc
16bb
16aaJJ
[4gg
=
2gg_
=
2gg]
=
4gg
8eeL
8ffJ
=
4gg
8aaL
8ggJ
=
4ff
4ee
=
4gg
8eeL
8ffJ
=
4gg
8aaL
8ggJ
=
4ff
[4ee
!!linebreak:original
=
2ee_
=
2ee]
=||
4gg
8eeL
8ffJ
=
4gg
8aaL
8ggJ
=
4ff
4ee
=
4gg
8eeL
8ffJ
=
4gg
8aaL
8cccJ
=
16bbLL
16ccc
16bb
16aaJJ
[4gg
=
2gg_
=
2gg]
=
4gg
8eeL
8ffJ
=
4gg
8aaL
8ggJ
=
4ff
4ee
!!linebreak:original
=
4gg
8eeL
8ffJ
=
4gg
8aaL
8ggJ
=
4ff
[4ee
=
2ee_
=
2ee]
=||
4.ccc
8ccc
=
4bb-X
4aa-X
=
4gg
16eeLL
16ff
16ee
16ffJJ
=
2gg
=
4.aa
8aa
=
4gg
4ff
=
4gg
16ggLL
16aa
16gg
16ffJJ
!!linebreak:original
=
4ee
8ddL
8eeJ
=
4ff
16ffLL
16ee
16dd
16eeJJ
=
4ff
16ggLL
16aa
16gg
16ffJJ
=
[2ee
=
2ee]
=||
4.ccc
8ccc
=
4bb-X
4aa-X
=
4gg
16eeLL
16ff
16ee
16ffJJ
=
2gg
=
4.aa
8aa
=
4gg
4ff
!!pagebreak:original
=
4gg
16ggLL
16aa
16gg
16ffJJ
=
4ee
8ddL
8eeJ
=
4ff
16ffLL
16ee
16dd
16eeJJ
=
4ff
16ggLL
16aa
16gg
16ffJJ
=
[2ee
=
2ee]
=||
*-
!!!system-decoration: s1,s2
